ePapirus/22x22/animations/nm-vpn-connecting13.svg

<?xml version="1.0" encoding="UTF-8" standalone="no"?>
<svg xmlns="http://www.w3.org/2000/svg" version="1.1" width="22" height="22">
 <defs>
  <linearGradient y2="5" x2="19" gradientTransform="matrix(-0.78369,-0.62115,-0.62115,0.78369,27.858,9.05)" y1="12" gradientUnits="userSpaceOnUse" x1="7" id="linearGradient3605">
   <stop offset="0" stop-opacity=".5" stop-color="#ffffff"/>
   <stop offset="1" stop-opacity="0" stop-color="#ffffff"/>
  </linearGradient>
  <linearGradient y2="12" x2="17" gradientTransform="matrix(0.78369,0.62115,0.62115,-0.78369,-5.8577,12.951)" y1="12" gradientUnits="userSpaceOnUse" x1="7" id="linearGradient3611">
   <stop offset="0" stop-color="#ffffff"/>
   <stop offset="1" stop-color="#ffffff" stop-opacity=".5"/>
  </linearGradient>
 </defs>
 <path d="M 6.2128906 6.2734375 C 5.9649906 6.2843375 5.7154719 6.3976438 5.5136719 6.6523438 C 3.1122719 9.6820438 3.6225437 14.085328 6.6523438 16.486328 C 8.2233271 17.732078 10.16108 18.185762 12 17.919922 L 12 15.894531 C 10.604577 16.178535 9.0977096 15.873721 7.8945312 14.919922 C 5.7301313 13.203922 5.3668312 10.059031 7.0820312 7.8945312 C 7.6877312 7.1304312 6.9564906 6.2408375 6.2128906 6.2734375 z" style="fill:url(#linearGradient3611)"/>
 <path d="M 10.867188 4.0019531 C 8.8506875 4.0417531 6.8644719 4.9481438 5.5136719 6.6523438 L 7.0820312 7.8945312 C 8.7972312 5.7304313 11.941469 5.3668313 14.105469 7.0820312 C 15.351012 8.0688574 15.985405 9.5279045 15.984375 11.001953 C 15.989734 11.001924 15.994634 11 16 11 C 16.746541 11 17.417366 11.291533 17.939453 11.751953 C 18.188032 9.4440543 17.301293 7.0644748 15.347656 5.515625 C 14.021656 4.465025 12.436188 3.9709531 10.867188 4.0019531 z" style="fill:url(#linearGradient3605)"/>
 <path d="m16 12c-1.108 0-2 .91085-2 2.0312v.96875h-1v4h6v-4h-1v-.96875c0-1.12-.892-2.031-2-2.031zm0 1c.554 0 1 .4424 1 1v1h-2v-1c0-.5576.446-1 1-1z" fill="#ffffff"/>
</svg>

<?xml version="1.0" encoding="UTF-8" standalone="no"?>
<svg width="22" xmlns="http://www.w3.org/2000/svg" version="1.1" height="22">
 <defs>
  <linearGradient id="linearGradient3605" y2="5" gradientUnits="userSpaceOnUse" y1="12" gradientTransform="matrix(-.78369 -.62115 -.62115 .78369 27.858 9.05)" x2="19" x1="7">
   <stop stop-opacity=".5" stop-color="#ffffff" offset="0"/>
   <stop stop-opacity="0" stop-color="#ffffff" offset="1"/>
  </linearGradient>
  <linearGradient id="linearGradient3611" y2="12" gradientUnits="userSpaceOnUse" y1="12" gradientTransform="matrix(.78369 .62115 .62115 -.78369 -5.8577 12.951)" x2="17" x1="7">
   <stop stop-color="#ffffff" offset="0"/>
   <stop stop-color="#ffffff" stop-opacity=".5" offset="1"/>
  </linearGradient>
 </defs>
 <path style="fill:url(#linearGradient3611)" d="m6.2129 6.2734c-0.2479 0.0109-0.4974 0.1242-0.6992 0.3789-2.4014 3.0297-1.8912 7.4327 1.1386 9.8337 1.571 1.246 3.5087 1.7 5.3477 1.434v-2.025c-1.395 0.284-2.9023-0.021-4.1055-0.975-2.1644-1.716-2.5277-4.861-0.8125-7.0255 0.6057-0.7641-0.1255-1.6537-0.8691-1.6211z"/>
 <path style="fill:url(#linearGradient3605)" d="m10.867 4.002c-2.0163 0.0398-4.0025 0.9461-5.3533 2.6503l1.5683 1.2422c1.7152-2.1641 4.859-2.5277 7.023-0.8125 1.246 0.9869 1.88 2.4459 1.879 3.92 0.006 0 0.011-0.002 0.016-0.002 0.747 0 1.417 0.292 1.939 0.752 0.249-2.3079-0.638-4.6875-2.591-6.2364-1.326-1.0506-2.912-1.5446-4.481-1.5136z"/>
 <path d="m16 12c-1.108 0-2 0.91085-2 2.0312v0.96875h-1v4h6v-4h-1v-0.96875c0-1.12-0.892-2.031-2-2.031zm0 1c0.554 0 1 0.4424 1 1v1h-2v-1c0-0.5576 0.446-1 1-1z" fill="#ffffff"/>
</svg>
